assets/images/instagram.svg

<svg width="48" height="48" viewBox="0 0 48 48" fill="none" xmlns="http://www.w3.org/2000/svg">
<circle cx="24" cy="24" r="24" fill="#E8EDF1"/>
<circle cx="24" cy="24" r="24" fill="url(#paint0_linear_486_421)"/>
<path d="M23.6935 20.1008C21.6853 20.1008 20.0464 21.7146 20.0464 23.6921C20.0464 25.6695 21.6853 27.2833 23.6935 27.2833C25.7017 27.2833 27.3406 25.6695 27.3406 23.6921C27.3406 21.7146 25.7017 20.1008 23.6935 20.1008ZM34.632 23.6921C34.632 22.2049 34.6456 20.7312 34.5608 19.2467C34.4759 17.5226 34.0766 15.9922 32.7961 14.7314C31.5129 13.4679 29.9616 13.0772 28.2106 12.9937C26.7003 12.9102 25.2038 12.9237 23.6963 12.9237C22.186 12.9237 20.6894 12.9102 19.1819 12.9937C17.4309 13.0772 15.8768 13.4706 14.5964 14.7314C13.3132 15.9949 12.9165 17.5226 12.8317 19.2467C12.7469 20.7339 12.7606 22.2076 12.7606 23.6921C12.7606 25.1766 12.7469 26.6529 12.8317 28.1373C12.9165 29.8616 13.316 31.3919 14.5964 32.6527C15.8795 33.9163 17.4309 34.3069 19.1819 34.3904C20.6921 34.474 22.1887 34.4605 23.6963 34.4605C25.2065 34.4605 26.703 34.474 28.2106 34.3904C29.9616 34.3069 31.5156 33.9136 32.7961 32.6527C34.0793 31.3892 34.4759 29.8616 34.5608 28.1373C34.6484 26.6529 34.632 25.1793 34.632 23.6921ZM23.6935 29.2177C20.5882 29.2177 18.082 26.7499 18.082 23.6921C18.082 20.6342 20.5882 18.1664 23.6935 18.1664C26.7988 18.1664 29.305 20.6342 29.305 23.6921C29.305 26.7499 26.7988 29.2177 23.6935 29.2177ZM29.5348 19.2306C28.8098 19.2306 28.2242 18.6541 28.2242 17.9401C28.2242 17.2261 28.8098 16.6496 29.5348 16.6496C30.2598 16.6496 30.8453 17.2261 30.8453 17.9401C30.8456 18.1097 30.8118 18.2776 30.7461 18.4342C30.6803 18.5909 30.5837 18.7332 30.462 18.8531C30.3402 18.9729 30.1957 19.0681 30.0365 19.1328C29.8775 19.1976 29.707 19.2308 29.5348 19.2306Z" fill="white"/>
<defs>
<linearGradient id="paint0_linear_486_421" x1="7.03336" y1="40.9666" x2="40.9666" y2="7.03336" gradientUnits="userSpaceOnUse">
<stop stop-color="#FAAD4F"/>
<stop offset="0.35" stop-color="#DD2A7B"/>
<stop offset="0.62" stop-color="#9537B0"/>
<stop offset="1" stop-color="#515BD4"/>
</linearGradient>
</defs>
</svg>

<svg width="48" height="48" fill="none" xmlns="http://www.w3.org/2000/svg"><circle cx="24" cy="24" r="24" fill="#E8EDF1"/><circle cx="24" cy="24" r="24" fill="url(#a)"/><path d="M23.694 20.1c-2.009 0-3.648 1.615-3.648 3.592s1.64 3.591 3.648 3.591 3.647-1.614 3.647-3.59c0-1.978-1.64-3.592-3.648-3.592Zm10.938 3.592c0-1.487.014-2.96-.071-4.445-.085-1.724-.484-3.255-1.765-4.516-1.283-1.263-2.834-1.654-4.585-1.737-1.51-.084-3.007-.07-4.515-.07-1.51 0-3.007-.014-4.514.07-1.751.083-3.305.477-4.586 1.737-1.283 1.264-1.68 2.792-1.764 4.516-.085 1.487-.071 2.96-.071 4.445 0 1.485-.014 2.96.07 4.445.085 1.725.485 3.255 1.765 4.516 1.284 1.263 2.835 1.654 4.586 1.737 1.51.084 3.007.07 4.514.07 1.51 0 3.007.014 4.515-.07 1.75-.083 3.305-.476 4.585-1.737 1.283-1.264 1.68-2.791 1.765-4.516.087-1.484.071-2.958.071-4.445Zm-10.938 5.526c-3.106 0-5.612-2.468-5.612-5.526s2.506-5.526 5.611-5.526c3.106 0 5.612 2.468 5.612 5.526s-2.506 5.526-5.611 5.526Zm5.84-9.987a1.3 1.3 0 0 1-1.31-1.29 1.3 1.3 0 0 1 1.31-1.291c.726 0 1.311.576 1.311 1.29a1.271 1.271 0 0 1-.383.913 1.31 1.31 0 0 1-.927.378Z" fill="#fff"/><defs><linearGradient id="a" x1="7.033" y1="40.967" x2="40.967" y2="7.033" gradientUnits="userSpaceOnUse"><stop stop-color="#FAAD4F"/><stop offset=".35" stop-color="#DD2A7B"/><stop offset=".62" stop-color="#9537B0"/><stop offset="1" stop-color="#515BD4"/></linearGradient></defs></svg>
